!!!!SEGMENT: pl-wnifc--6634-n--003_lewandowski-leopold-leon--3-wspomnienie-kazmierzy.krn
!!!cenid: 18xx:3999
!!!COM: Lewandowski, Leopold Leon
!!!COM-rismID: pe50043087
!!!CDT: 1831-1896
!!!CNT: Polish
!!!OTL: 3. Wspomnienie Każmierzy
!!!PDT:
!!!AGN:
!!!SMS-siglum: PL-Wnifc
!!!SMS-shelfmark: 6634/n
!!!SMS-shelfwork: 003 W
!!!SMS-variant:
!!!SMS-altvar:
!!!NIFC-rismSourceID: 1001148593
!!!NIFC-rismChildID: 1001148598
!!!NIFC-islandoraID: nifc:212915
!!!URL-pdf-islandora: https://repozytorium.nifc.pl/islandora/object/nifc%3A212915/datastream/PDF/view
!!!URL-scan: https://polish.musicsources.pl/pl/lokalizacje/galeria/druki-muzyczne/16872 @EN{Scan on Polish Music Sources Website} @PL{Skany w portalu Dziedzictwo Muzyki Polskiej w otwartym dostępie}
!!!ONB-nifc: UWAGA: str. 8
!!!AIN: 1 violn
!!!key: D
**kern	**fing	**dynam
*I"Violon.	*	*
*I'vl	*	*
*ICstr	*	*
*Ivioln	*	*
*clefG2	*	*
*k[f#c#]	*	*
*D:	*	*
*M3/8	*	*
=1	=1	=1
4du/ 4a	.	p <
8d/ 8a	.	.
=2	=2	=2
4d/ 4a	.	.
8d/ 8a	.	.
=3	=3	=3
16.d/LL 16.a	.	.
32d/JJk 32a	.	.
8d/L 8a	.	.
8d/J 8a	.	.
=4	=4	=4
8d/L 8a	.	.
8d/ 8a	.	.
8d/J 8a	.	.
=5||	=5||	=5||
!LO:TX:t=[segno]	!	!
(8qbbu/	.	f
16.aa\LL)	.	.
32gg#X\JJk	.	.
8aa\L	.	.
(16ff#\L	.	.
16dd\JJ)	.	.
=6	=6	=6
8bb^^\L	.	.
8bb^^\	.	.
8bb^^\J	.	.
=7	=7	=7
(8qaa/	.	.
16.gg\LL)	.	.
32ff#\JJk	.	.
8gg\L	.	.
(16ee\L	.	.
16cc#\JJ)	.	.
!LO:LB:g=original	!	!
=8	=8	=8
8aa^^\L	.	.
8aa^^\	.	.
8aa^^\J	.	.
=9	=9	=9
16.dd\LL	.	p
32dd\JJk	.	.
8ee\L	.	.
8ff#\J	.	.
=10	=10	=10
!LO:TUP:a:problem:klamra łukowa	!	!
24ee\LL	.	.
24ff#\	.	.
24ee\JJ	.	.
8cc#\L	.	.
8a\J	.	.
=11	=11	=11
16.dd\LL	.	.
32dd\JJk	.	.
8ff#\L	.	.
(16ff#\L	.	.
16aa\JJ)	.	.
=12	=12	=12
!LO:TUP:a:problem:klamra łukowa	!	!
24ee\LL	.	.
24ff#\	.	.
24ee\JJ	.	.
8cc#\L	.	.
8a\J	.	.
=13	=13	=13
(8qbb/	.	f
16.aa\LL)	.	.
32gg#X\JJk	.	.
8aa\L	.	.
(16ff#\L	.	.
16dd\JJ)	.	.
!LO:LB:g=original	!	!
=14	=14	=14
8bb^^\L	.	.
8bb^^\	.	.
8bb^^\J	.	.
=15	=15	=15
(8qaa/	.	.
16.gg\LL)	.	.
32ff#\JJk	.	.
8gg\L	.	.
(16ee\L	.	.
16cc#\JJ)	.	.
=16	=16	=16
8aa^^\L	.	.
8aa^^\	.	.
8aa^^\J	.	.
=17	=17	=17
16.aa\LL	1	p
32bb\JJk	.	.
8cccn^^\L	.	.
8ccc^^\J	.	.
=18	=18	=18
!LO:TUP:a:problem:klamra łukowa	!	!
24bb\LL	.	.
24cccn\	.	.
24bb\JJ	.	.
8gg\L	4	.
(16gg\L	.	.
16ff#\JJ)	.	.
!LO:LB:g=original	!	!
=19	=19	=19
16.ee\LL	0	.
32ff#\JJk	.	.
8gg\L	.	.
!LO:TUP:a:problem:klamra łukowa	!	!
24gg\L	.	.
24aa\	.	.
24gg\JJ	.	.
=20	=20	=20
16.ff#\LL	.	.
32gg\JJk	.	.
8aa\L	.	.
8aa\J	.	.
=21	=21	=21
16.aa\LL	1	f
32bb\JJk	.	.
8cccn^^\L	.	.
8ccc^^\J	.	.
=22	=22	=22
!LO:N:vis=8.	!	!
16.bb\LL	.	.
!LO:N:vis=16	!	!
32bb\JJk	.	.
8gg\L	2	.
(16gg\L	.	.
16ff#\JJ)	.	.
=23	=23	=23
*	*	*
!LO:TUP:a:problem:klamra łukowa	!	!
24ee\LL	.	.
24ee\	.	.
24ee\JJ	.	.
8aa\L	.	.
(16ee\L	.	.
16ff#\JJ)	.	.
!LO:LB:g=original	!	!
=24	=24	=24
8dd\	1	.
!LO:TX:b:i:t=Fine.	!	!
!LO:TX:t=P:problem: fermata nad ||	!	!
4ddd^^;\	.	.
=25||	=25||	=25||
4.r	.	.
=26	=26	=26
4.r	.	.
=27	=27	=27
16c#u/LL	.	p
16e/JJ	.	.
8a/L	.	.
8e/J	.	.
=28	=28	=28
(8qa/	.	.
16.g#X/LL)	.	.
32e/JJk	.	.
8g#/L	.	.
8b/J	.	.
=29	=29	=29
!LO:TUP:a:problem:klamra łukowa	!	!
24a\LL	.	ff
24cc#\	.	.
24dd\JJ	.	.
8ee\L	.	.
(16ee\L	.	.
16ff#\JJ)	.	.
=30	=30	=30
16ee\LL	.	.
16dd#X\JJ	.	.
8ddn\L	.	.
8b\J	.	.
!LO:LB:g=original	!	!
=31	=31	=31
16cc#\LL	.	.
16ee\JJ	.	.
8.aa^^\L	.	.
16ee\Jk	.	.
=32	=32	=32
16.gg#Xm\LL	.	.
32ee\JJk	.	.
8gg#\L	.	.
(16gg#\L	.	.
16bb\JJ)	.	.
=33	=33	=33
16aa\	.	.
16r	.	.
8r	.	.
8r	.	.
=34	=34	=34
!LO:TX:a:t=1	!	!
4.r	.	.
=35	=35	=35
16.aa^^u\LL	.	p
32aa\JJk	.	.
8a\L	.	.
(16a\L	.	.
16cc#\JJ)	.	.
=36	=36	=36
16.b\LL	.	.
32b\JJk	.	.
8dd\L	.	.
(16cc#\L	.	.
16b\JJ)	.	.
!LO:LB:g=original	!	!
=37	=37	=37
!LO:TUP:a:problem:klamra łukowa	!	!
24a\LL	.	.
24cc#\	.	.
24ee\JJ	.	.
8aaM\L	.	.
(16ee\L	.	.
16gg#X\JJ)	.	.
=38	=38	=38
16.aa\LL	.	.
32aa\JJk	.	.
8ee\L	.	.
(16gg#X\L	.	.
16bb\JJ)	.	.
=39	=39	=39
16.aa\LL	.	.
32aa^^\JJk	.	.
8aa^^\L	.	.
8aa^^\J	.	.
=40	=40	=40
8aa\	.	.
32r	.	.
(32av\LLL	.	.
32b\	.	.
32cc#\JJJ	.	.
!LO:TX:b:i:t=D.S. al Fine.	!	!
32dd\LLL	.	.
32ee\	.	.
32ff#\	.	.
!LO:TX:t=P:problem: segno nad ||	!	!
!LO:TX:a:t=[segno]	!	!
32ggn\JJJ)	.	.
!LO:LB:g=original	!	!
=41||	=41||	=41||
*k[cnf#]	*	*
*M3/8	*	*
!LO:TX:t=P:problem: kasownik tylko przy zmianie znaków przykluczowych, w kolejnych systemach brak	!	!
!LO:TX:a:B:t=Trio.	!	!
16.Gu/LL	.	f
32B/JJk	.	.
16d/LL	.	.
16g/	.	.
16b/	.	.
16dd/JJ	.	.
=42	=42	=42
16a/LL	.	.
16d/JJ	.	.
8cc^^M\L	.	.
(16b\L	.	.
16a\JJ)	.	.
=43	=43	=43
16b\LL	.	.
16cc\JJ	.	.
8ddM\L	.	.
(16cc\L	.	.
16b\JJ)	.	.
=44	=44	=44
16.a/LL	.	.
32f#/JJk	.	.
8d/	.	.
8r	.	.
=45!|:	=45!|:	=45!|:
(>8qd/	.	p
4b\)	.	.
8d/	.	.
=46	=46	=46
(>8qd/	.	.
4cc\)	.	.
(16b/LL	.	.
16a/JJ)	.	.
!LO:LB:g=original	!	!
=47	=47	=47
(8qcc/	.	.
16.b/LL)	.	.
32a#X/JJk	.	.
8b\L	.	.
8ee\J	4	.
=48	=48	=48
8dd\L	.	.
8a\J	.	.
16r	.	.
16d/	.	.
=49	=49	=49
(8qcc/	.	.
16.b/LL)	.	.
32a#X/JJk	.	.
8.b/L	.	.
16d/Jk	.	.
=50	=50	=50
(8qdd/	.	.
16.cc\LL)	.	.
32b\JJk	.	.
8.cc/L	.	.
16d/Jk	.	.
=51	=51	=51
(8qcc/	.	.
16.b/LL)	.	.
32a#X/JJk	.	.
(16b\LL	.	.
16gg\)	.	.
16ff#'\	.	.
16ee'\JJ	.	.
=52	=52	=52
16dd\	.	.
16r	.	.
8.a/L	.	.
16a#X/Jk	.	.
!LO:LB:g=original	!	!
=53	=53	=53
16.b\LL	.	<
(8qdd/	.	.
32cc\JJk)	.	.
8.b/L	.	.
16f#/Jk	.	.
=54	=54	=54
16.b\LL	.	.
(8qdd/	.	.
32cc\JJk)	.	.
16b\LL	.	.
16b\	.	.
16cc\	.	.
16cc#X\JJ	.	.
=55	=55	=55
16.dd\LL	.	.
(8qff#/	.	.
32ee\JJk)	.	.
8.dd\L	.	.
16a\Jk	.	.
=56	=56	=56
16.dd\LL	.	.
32gg\JJk	.	.
8ff#\L	.	.
8gg\J	.	.
=57	=57	=57
16.aa^^\LL	.	ff
32gg\JJk	.	.
8ff#\L	.	.
8ee\J	.	.
!LO:LB:g=original	!	!
=58	=58	=58
4dd\	.	.
8gg\	.	.
=59	=59	=59
16.ff#\LL	.	.
32aa\JJk	.	.
8cc\L	.	.
8ee\J	.	.
=60	=60	=60
4dd\	.	.
8b\	.	.
=61	=61	=61
16.dd\LL	.	p <
(8qff#/	.	.
32ee\JJk)	.	.
8.dd\L	.	.
16a\Jk	.	.
=62	=62	=62
16b\LL	.	.
16cc\JJ	.	.
8cc#X\L	.	.
8dd\J	.	.
=63	=63	=63
16.dd\LL	.	.
(8qff#/	.	.
32ee\JJk)	.	.
8.dd\L	.	.
16a\Jk	.	.
!LO:LB:g=original	!	!
=64	=64	=64
16.b\LL	.	.
32gg\JJk	.	.
8ff#\L	.	.
8gg\J	.	.
=65	=65	=65
16.aa\LL	.	f
32gg#X\JJk	.	.
8aa^^\L	.	.
8aa#X^^\J	.	.
=66	=66	=66
8.bb^^\L	.	.
16gg\L	.	.
16ff#\	.	.
16ee\JJ	.	.
=67	=67	=67
!LO:TUP:b:problem:klamra łukowa	!	!
24dd\LL	.	.
24ee\	4	.
24dd\JJ	.	.
(16a/LL	.	.
16cc/)	.	.
16b/	.	.
16a/JJ	.	.
=68	=68	=68
8g/	.	.
4gg\	.	.
=:|!	=:|!	=:|!
*-	*-	*-
!!!RDF**kern: > = above
!!!RDF**kern: < = below
!!!ENC: Filip Voros
!!!END: 2022-07-31
!!!ENC: Natalia Wrzos
!!!END: 2022-08-29
!!!YEC: Copyright 2022 Narodowy Instytut Fryderyka Chopina (https://polishscores.org)
!!!YEM: License CC-BY-4.0 (https://creativecommons.org/licenses/by/4.0)
